svg/part/shoe_line.svg

<?xml version="1.0" encoding="UTF-8"?>
<svg width="24px" height="24px" viewBox="0 0 24 24" version="1.1" xmlns="http://www.w3.org/2000/svg" xmlns:xlink="http://www.w3.org/1999/xlink">
    <title>shoe_line</title>
    <g id="Icon" stroke="none" stroke-width="1" fill="none" fill-rule="evenodd">
        <g id="Part" transform="translate(-528.000000, -96.000000)">
            <g id="shoe_line" transform="translate(528.000000, 96.000000)">
                <path d="M24,0 L24,24 L0,24 L0,0 L24,0 Z M12.5934901,23.257841 L12.5819402,23.2595131 L12.5108777,23.2950439 L12.4918791,23.2987469 L12.4918791,23.2987469 L12.4767152,23.2950439 L12.4056548,23.2595131 C12.3958229,23.2563662 12.3870493,23.2590235 12.3821421,23.2649074 L12.3780323,23.275831 L12.360941,23.7031097 L12.3658947,23.7234994 L12.3769048,23.7357139 L12.4804777,23.8096931 L12.4953491,23.8136134 L12.4953491,23.8136134 L12.5071152,23.8096931 L12.6106902,23.7357139 L12.6232938,23.7196733 L12.6232938,23.7196733 L12.6266527,23.7031097 L12.609561,23.275831 C12.6075724,23.2657013 12.6010112,23.2592993 12.5934901,23.257841 L12.5934901,23.257841 Z M12.8583906,23.1452862 L12.8445485,23.1473072 L12.6598443,23.2396597 L12.6498822,23.2499052 L12.6498822,23.2499052 L12.6471943,23.2611114 L12.6650943,23.6906389 L12.6699349,23.7034178 L12.6699349,23.7034178 L12.678386,23.7104931 L12.8793402,23.8032389 C12.8914285,23.8068999 12.9022333,23.8029875 12.9078286,23.7952264 L12.9118235,23.7811639 L12.8776777,23.1665331 C12.8752882,23.1545897 12.8674102,23.1470016 12.8583906,23.1452862 L12.8583906,23.1452862 Z M12.1430473,23.1473072 C12.1332178,23.1423925 12.1221763,23.1452606 12.1156365,23.1525954 L12.1099173,23.1665331 L12.0757714,23.7811639 C12.0751323,23.7926639 12.0828099,23.8018602 12.0926481,23.8045676 L12.108256,23.8032389 L12.3092106,23.7104931 L12.3186497,23.7024347 L12.3186497,23.7024347 L12.3225043,23.6906389 L12.340401,23.2611114 L12.337245,23.2485176 L12.337245,23.2485176 L12.3277531,23.2396597 L12.1430473,23.1473072 Z" id="MingCute" fill-rule="nonzero"></path>
                <path d="M18.0263,3.9022 C17.8741,3.63855 17.5781,3.41016 17.31,3.41016 C16.8294,3.41016 16.2129,3.89031 15.8395,4.18121 C15.2812,4.61602 14.6288,5.02924 13.9287,5.17251 C13.411,5.27844 12.7931,5.19864 12.2468,5.05638 C12.1575,5.03312 11.3833,4.76225 11.3833,4.76225 C10.3106,4.26698 9.83504,5.67438 9.41159,6.36702 C9.1223,6.84022 8.757,7.40394 8.34188,7.97257 C7.94187,7.93574 7.54224,8.14375 7.35355,8.52538 C7.23158,8.77206 7.22076,9.04474 7.30185,9.28654 C6.99391,9.66386 6.70182,10.0255 6.42539,10.3728 C5.97006,10.2427 5.47277,10.452 5.25541,10.8916 C5.10058,11.2047 5.12485,11.5597 5.28885,11.8403 C4.21709,13.2729 3.47869,14.4385 3.05337,15.4748 C2.69212,16.355 2.53893,17.1783 2.6063,18.0172 C2.67275,18.8444 2.94828,19.6146 3.33347,20.3934 C3.85516,21.4481 5.13483,21.7374 6.07179,21.1964 L20.7942,12.6964 C21.7508,12.1441 22.0786,10.921 21.5263,9.96438 C20.3595,7.94356 19.193,5.92305 18.0263,3.9022 Z M18.294,8.3659 L16.8755,5.90903 C16.1115,6.4551 15.2583,6.94186 14.3296,7.1319 C13.3757,7.3271 12.4111,7.16588 11.7428,6.99183 C11.3319,6.88483 11.3386,7.04936 11.118,7.41024 C10.8658,7.82262 10.5542,8.30857 10.1976,8.81607 L10.3092,8.87123 C10.8043,9.11602 11.0072,9.7158 10.7624,10.2109 C10.5176,10.7059 9.91783,10.9088 9.42276,10.6641 L8.95007,10.4303 C8.71205,10.7215 8.48553,11.0008 8.27008,11.2691 C8.72192,11.5309 8.89907,12.1022 8.66425,12.5771 C8.41946,13.0722 7.81969,13.275 7.32461,13.0303 L7.01301,12.8762 C5.92747,14.3126 5.261,15.3634 4.90359,16.2342 C4.63808,16.8811 4.56225,17.3885 4.59988,17.857 C4.63731,18.3231 4.79245,18.821 5.09799,19.4493 L19.7942,10.9644 L19.294,10.098 L14.9642,12.5978 C14.4859,12.8739 13.8743,12.71 13.5981,12.2317 C13.322,11.7535 13.4859,11.1419 13.9642,10.8657 L18.294,8.3659 Z" id="形状" fill="#09244B"></path>
            </g>
        </g>
    </g>
</svg>

<svg xmlns="http://www.w3.org/2000/svg" width="24" height="24"><g fill="none" fill-rule="evenodd"><path d="M24 0v24H0V0h24ZM12.593 23.258l-.011.002-.071.035-.02.004-.014-.004-.071-.035c-.01-.004-.019-.001-.024.005l-.004.01-.017.428.005.02.01.013.104.074.015.004.012-.004.104-.074.012-.016.004-.017-.017-.427c-.002-.01-.009-.017-.017-.018Zm.265-.113-.013.002-.185.093-.01.01-.003.011.018.43.005.012.008.007.201.093c.012.004.023 0 .029-.008l.004-.014-.034-.614c-.003-.012-.01-.02-.02-.022Zm-.715.002a.023.023 0 0 0-.027.006l-.006.014-.034.614c0 .012.007.02.017.024l.015-.002.201-.093.01-.008.004-.011.017-.43-.003-.012-.01-.01-.184-.092Z"/><path fill="#09244B" d="M18.026 3.902c-.152-.263-.448-.492-.716-.492-.48 0-1.097.48-1.47.771-.559.435-1.211.848-1.911.992-.518.105-1.136.026-1.682-.117-.09-.023-.864-.294-.864-.294-1.072-.495-1.548.912-1.971 1.605-.29.473-.655 1.037-1.07 1.606a1 1 0 0 0-1.04 1.314c-.308.377-.6.738-.877 1.086A1 1 0 0 0 5.29 11.84c-1.072 1.433-1.81 2.598-2.236 3.635-.36.88-.514 1.703-.447 2.542.067.827.342 1.598.727 2.376.522 1.055 1.802 1.344 2.739.803l14.722-8.5a2 2 0 0 0 .732-2.732l-3.5-6.062Zm.268 4.464-1.419-2.457c-.764.546-1.617 1.033-2.545 1.223-.954.195-1.919.034-2.587-.14-.411-.107-.404.057-.625.418-.252.413-.564.899-.92 1.406l.111.055a1 1 0 1 1-.886 1.793l-.473-.234c-.238.292-.464.57-.68.84a1 1 0 0 1-.945 1.76l-.312-.154c-1.086 1.437-1.752 2.487-2.11 3.358-.265.647-.34 1.154-.303 1.623.037.466.192.964.498 1.592l14.696-8.485-.5-.866-4.33 2.5a1 1 0 0 1-1-1.732l4.33-2.5Z"/></g></svg>
